!!!COM: L. van Beethoven
!!!OTL: Op. 59 No. 3 Movement 1 - String Quartet No. 9
**kern	**dynam	**kern	**dynam	**kern	**dynam	**kern	**dynam	**mxhm
*part4	*part4	*part3	*part3	*part2	*part2	*part1	*part1	*part1
*staff4	*	*staff3	*	*staff2	*	*staff1	*	*
*I"Cello	*	*I"Viola	*	*I"2nd Violin	*	*I"1st Violin	*	*
*clefF4	*	*clefC3	*	*clefG2	*	*clefG2	*	*
*k[b-e-a-d-g-]	*	*k[b-e-a-d-g-]	*	*k[b-e-a-d-g-]	*	*k[b-e-a-d-g-]	*	*
*D-:	*	*D-:	*	*D-:	*	*D-:	*	*
*M3/4	*	*M3/4	*	*M3/4	*	*M3/4	*	*
=1	=1	=1	=1	=1	=1	=1	=1	=1
!	!	!	!	!	!	!LO:TX:a:B:t=Menuetto Grazioso	!	!
(2d-	p	(2f	p	(2a-	p	(2dd-	p	I
16e-LL	.	16g-LL	.	16a-LL	.	16ccLL	.	V43
16d-	.	16f	.	16b-	.	16dd-	.	.
16c	.	16e-	.	16cc	.	16ee-	.	.
16B-JJ)	.	16d-JJ)	.	16dd-JJ)	.	16ffJJ)	.	.
=2	=2	=2	=2	=2	=2	=2	=2	=2
(4A-	.	(2c	.	(2ee-	.	(2gg-	.	#viio7/vi
4AX	.	.	.	.	.	.	.	.
4B-)	.	4d-)	.	4dd-)	.	4ff)	.	vi
=3	=3	=3	=3	=3	=3	=3	=3	=3
(4G-	.	(2d-	.	2dd-	.	(2ee-	.	V65/V
2GX)	.	.	.	.	.	.	.	.
.	.	4e-)	.	4dd-	.	[4bb-)	.	.
=4	=4	=4	=4	=4	=4	=4	=4	=4
(4A-	.	(4e-	.	(4cc	.	(8bb-]	.	V(9)
.	.	.	.	.	.	4aa-	.	V7/V
4E-	.	4d-	.	4b-	.	.	.	.
.	.	.	.	.	.	8ggX)	.	.
4A-)	.	(12cL)	.	[4a-)	.	(12aa-L	.	V7
.	.	12e-)	.	.	.	12gg-)	.	.
.	.	12a-'J	.	.	.	12ee-'J	.	.
=5	=5	=5	=5	=5	=5	=5	=5	=5
(2d-	.	(2f	.	8a-L]	.	(2dd-	.	I
.	.	.	.	(16a-L	.	.	.	.
.	.	.	.	16b-JJ	.	.	.	.
.	.	.	.	16a-LL	.	.	.	.
.	.	.	.	16b-	.	.	.	.
.	.	.	.	16a-	.	.	.	.
.	.	.	.	16b-JJ	.	.	.	.
16e-LL	.	16g-LL	.	16a-LL	.	16ccLL	.	V43
16d-	.	16f	.	16b-	.	16dd-	.	.
16c	.	16e-	.	16cc	.	16ee-	.	.
16B-JJ)	.	16d-JJ)	.	16dd-JJ)	.	16ffJJ)	.	.
=6	=6	=6	=6	=6	=6	=6	=6	=6
(4A-	.	(2c	.	(2ee-	.	(2gg-	.	#viio7/vi
4AX	.	.	.	.	.	.	.	.
4B-)	.	4d-)	.	4dd-)	.	4ff)	.	vi
=7	=7	=7	=7	=7	=7	=7	=7	=7
(4G-	.	(4d-	.	2dd-	.	4.ee-	.	V65/V
4GX	.	4.e-	.	.	.	.	.	.
.	.	.	.	.	.	(8bb-L	.	.
4A-)	.	.	.	4cc	.	8aa-J)	.	V7
.	.	16d-LL	.	.	.	8gg-'	.	.
.	.	16e-JJ)	.	.	.	.	.	.
=8	=8	=8	=8	=8	=8	=8	=8	=8
(4d-	.	(4f	.	(4dd-	.	(4..ff	.	V7(6)
4A-	.	4g-	.	4cc	.	.	.	.
.	.	.	.	.	.	16ee-	.	V7
4D-)	.	4f)	.	4dd-)	.	4dd-)	.	I\\
=9	=9	=9	=9	=9	=9	=9	=9	=9
!	!	!	!	!	!	!LO:TX:a:i:t=sul una corda.	!	!
(2D-	.	(2F	.	(2A-	.	(2d-	.	I
16E-LL	.	16G-LL	.	16A-LL	.	16cLL	.	V43
16D-	.	16F	.	16B-	.	16d-	.	.
16C	.	16E-	.	16c	.	16e-	.	.
16BB-JJ)	.	16D-JJ)	.	16d-JJ)	.	16fJJ)	.	.
=10	=10	=10	=10	=10	=10	=10	=10	=10
(4AA-	.	(2E-	.	(2c	.	(2g-	.	#viio7/vi
4AAX	.	.	.	.	.	.	.	.
4BB-)	.	4D-)	.	4d-)	.	4f)	.	vi
=11	=11	=11	=11	=11	=11	=11	=11	=11
(4GG-	.	(2D-	.	(2d-	.	(2e-	.	V65/V
2GGX)	.	.	.	.	.	.	.	.
.	.	4E-)	.	4d-)	.	[4b-)	.	.
=12	=12	=12	=12	=12	=12	=12	=12	=12
(4AA-	.	4E-	.	(4c	.	(8b-]	.	V(9)
.	.	.	.	.	.	4a-	.	V7/V
4EE-	.	[4E-	.	4d-	.	.	.	.
.	.	.	.	.	.	8gX)	.	.
4AA-)	.	12E-L]	.	4c)	.	(12a-L	.	V7
.	.	(12E-	.	.	.	12g-)	.	.
.	.	12G-J)	.	.	.	12e-'J	.	.
=13	=13	=13	=13	=13	=13	=13	=13	=13
(2D-	.	(2F	.	8d-L	.	(4.d-	.	I
.	.	.	.	(16A-L	.	.	.	.
.	.	.	.	16B-JJ	.	.	.	.
.	.	.	.	16A-LL	.	.	.	.
.	.	.	.	16B-	.	.	.	.
.	.	.	.	16A-	.	16e-LL	.	.
.	.	.	.	16B-JJ	.	16d-JJ	.	.
16E-LL	.	16G-LL	.	16A-LL	.	16cLL	.	V43
16D-	.	16F	.	16B-	.	16d-	.	.
16C	.	16E-	.	16c	.	16e-	.	.
16BB-JJ)	.	16D-JJ)	.	16d-JJ)	.	16fJJ)	.	.
=14	=14	=14	=14	=14	=14	=14	=14	=14
(4AA-	.	(2E-	.	(2c	.	(2g-	.	#viio7/vi
4AAX	.	.	.	.	.	.	.	.
4BB-)	.	4D-)	.	[4d-)	.	4f)	.	vi
=15	=15	=15	=15	=15	=15	=15	=15	=15
(4GG-	.	(4D-	.	2d-]	.	4.e-	.	V65/V
4GGX	.	4.E-	.	.	.	.	.	.
.	.	.	.	.	.	8b-L	.	.
4AA-)	.	.	.	4ct	.	8a-	.	V7
.	.	16D-LL	.	.	.	8g-'J	.	.
.	.	16E-JJ)	.	.	.	.	.	.
=16	=16	=16	=16	=16	=16	=16	=16	=16
(4D-	.	(4F	.	(4d-	.	(4..f	.	V7(6)
4AA-	.	4G-	.	4c	.	.	.	.
.	.	.	.	.	.	16e-	.	V7
4DD-)	.	4F)	.	4d-)	.	4d-)	.	I\\
=17!|:	=17!|:	=17!|:	=17!|:	=17!|:	=17!|:	=17!|:	=17!|:	=17!|:
!LO:TX:b:i:t=cresc.	!	!LO:TX:b:i:t=cresc.	!	!LO:TX:b:i:t=cresc.	!	!LO:TX:a:i:t=cresc.	!	!
4r	.	4r	.	4r	.	(2a-	.	V[V6
2A-	.	2c	.	2e-	.	.	.	.
.	.	.	.	.	.	16gXLL	.	.
.	.	.	.	.	.	16a-	.	.
.	.	.	.	.	.	16b-	.	.
.	.	.	.	.	.	16ccJJ)	.	.
=18	=18	=18	=18	=18	=18	=18	=18	=18
4r	.	4r	.	4r	.	4.dd-	.	V2/V
2A-	.	2d-	.	2gX	.	.	.	.
.	.	.	.	.	.	(8b-	.	.
.	.	.	.	.	.	16aXLL	.	.
.	.	.	.	.	.	16b-	.	.
.	.	.	.	.	.	16cc	.	.
.	.	.	.	.	.	16dd-JJ)	.	.
=19	=19	=19	=19	=19	=19	=19	=19	=19
4r	.	4r	.	4r	.	(8ee-L	.	V6
.	.	.	.	.	.	8ccJ	.	.
4A-	.	4e-	.	4g-	.	16b-LL	.	viio6
.	.	.	.	.	.	16cc	.	.
.	.	.	.	.	.	16dd-	.	.
.	.	.	.	.	.	16ee-JJ)	.	.
[4A-	.	[4d-	.	[4f	.	(8ffL	.	I
.	.	.	.	.	.	8dd-J	.	.
=20	=20	=20	=20	=20	=20	=20	=20	=20
4A-]	.	4d-]	.	4f]	.	16ccLL	.	.
.	.	.	.	.	.	16dd-	.	.
.	.	.	.	.	.	16ee-	.	.
.	.	.	.	.	.	16ffJJ)	.	.
!	!	!	!LO:DY:a	!	!	!	!	!
4A-	f	4c	f f	4e-	.	(16gg-LL	f	V6]
.	.	.	.	.	.	16aa-	.	.
.	.	.	.	.	.	16bb-	.	.
.	.	.	.	.	.	16aa-JJ	.	.
4r	.	4r	.	4r	.	16gg-LL	.	.
.	.	.	.	.	.	16ff	.	.
.	.	.	.	.	.	16ee-	.	.
.	.	.	.	.	.	16dd-JJ	.	.
=21	=21	=21	=21	=21	=21	=21	=21	=21
!	!	!	!	!	!	!LO:TX:b:i:t=dim.	!	!
2.r	.	4r	.	2.r	.	16ccLL	.	.
.	.	.	.	.	.	16b-	.	.
.	.	.	.	.	.	16a-	.	.
.	.	.	.	.	.	16g-JJ	.	.
.	.	4r	.	.	.	16fLL	.	.
.	.	.	.	.	.	16e-	.	.
.	.	.	.	.	.	16d-	.	.
.	.	.	.	.	.	16cJJ)	.	.
.	.	(16B-LL	p	.	.	4r	.	.
.	.	16A-	.	.	.	.	.	.
.	.	16G-	.	.	.	.	.	.
.	.	16FJJ)	.	.	.	.	.	.
=22	=22	=22	=22	=22	=22	=22	=22	=22
(16E-LL	p	2.r	.	2.r	.	2.r	.	.
16D-	.	.	.	.	.	.	.	.
16C	.	.	.	.	.	.	.	.
16BB-JJ	.	.	.	.	.	.	.	.
16AA-LL	.	.	.	.	.	.	.	.
16BB-	.	.	.	.	.	.	.	.
16C	.	.	.	.	.	.	.	.
16D-JJ	.	.	.	.	.	.	.	.
16E-LL	.	.	.	.	.	.	.	.
16F	.	.	.	.	.	.	.	.
16G-	.	.	.	.	.	.	.	.
16E-JJ)	.	.	.	.	.	.	.	.
=23	=23	=23	=23	=23	=23	=23	=23	=23
(2D-	.	4r	p	2.r	.	2.r	.	I
.	.	[2A-	.	.	.	.	.	.
16CLL	.	.	.	.	.	.	.	.
16D-	.	.	.	.	.	.	.	.
16E-	.	.	.	.	.	.	.	.
16FJJ)	.	.	.	.	.	.	.	.
=24	=24	=24	=24	=24	=24	=24	=24	=24
(2G-	.	4A-]	.	(2e-	p	4r	.	V2
.	.	(16GXLL	.	.	.	4r	.	.
.	.	16A-	.	.	.	.	.	.
.	.	16B-	.	.	.	.	.	.
.	.	16cJJ	.	.	.	.	.	.
4F	.	8d-L	.	16d-LL	.	[4a-	p	I6
.	.	.	.	16e-	.	.	.	.
.	.	[8A-J)	.	16f	.	.	.	.
.	.	.	.	16g-JJ)	.	.	.	.
=25	=25	=25	=25	=25	=25	=25	=25	=25
4E-)	.	(8A-L]	.	4a-	.	(16a-LL]	.	V43
.	.	.	.	.	.	16b-	.	.
.	.	8B-J	.	.	.	16cc	.	.
.	.	.	.	.	.	16dd-JJ	.	.
(4.A-	sfp	8cL	.	4r	.	16ee-LL	.	V
.	.	.	.	.	.	16ff	.	.
.	.	8A-	.	.	.	16ggX	.	.
.	.	.	.	.	.	16aa-JJ	.	.
.	.	8d-	.	8r	.	16bb-LL	.	.
.	.	.	.	.	.	16ccc	.	.
8GX)	.	8B-J)	.	8d- 8e-	.	16ddd-	.	V65/V
.	.	.	.	.	.	16bb-JJ)	.	.
=26	=26	=26	=26	=26	=26	=26	=26	=26
(4.B-	sfp	4.d-	.	4.e-	.	(16aa-LL	.	V43/V
.	.	.	.	.	.	16ggX	.	.
.	.	.	.	.	.	16ff	.	.
.	.	.	.	.	.	16ggJJ)	.	.
.	.	.	.	.	.	(16bb-LL	.	.
.	.	.	.	.	.	16aa-	.	.
8A-L	.	(8cL	.	(8a-L	.	16gg	.	V
.	.	.	.	.	.	16aa-JJ	.	.
8G-	.	8d-	.	8b-	.	16bb-LL	.	V2
.	.	.	.	.	.	16aa-	.	.
8E-J)	.	8e-J)	.	8ccJ)	.	16ccc	.	V43
.	.	.	.	.	.	16aa-JJ)	.	.
=27	=27	=27	=27	=27	=27	=27	=27	=27
(4D-	.	4f	.	8dd-	.	(4.ddd-	.	I
.	.	.	.	(16aa-LL	.	.	.	.
.	.	.	.	16bb-JJ	.	.	.	.
4d-	.	(4f	.	16aa-LL	.	.	.	.
.	.	.	.	16bb-	.	.	.	.
.	.	.	.	16aa-	.	16eee-LL	.	.
.	.	.	.	16bb-JJ	.	16ddd-JJ	.	.
16e-LL	.	16g-LL	.	16aa-LL	.	16cccLL	.	V43
16d-	.	16f	.	16bb-	.	16ddd-	.	.
16c	.	16e-	.	16ccc	.	16eee-	.	.
16B-JJ)	.	16d-JJ)	.	16ddd-JJ)	.	16fffJJ)	.	.
=28	=28	=28	=28	=28	=28	=28	=28	=28
(4A-	.	4c	.	(4eee-	.	(4ggg-	.	V7
4AX	.	(4c	.	4ee-	.	4gg-	.	#viio7/vi
4B-)	.	4d-)	.	4dd-)	.	4ff)	.	vi
=29	=29	=29	=29	=29	=29	=29	=29	=29
!LO:TX:b:i:t=cresc.	!	!LO:TX:b:i:t=cresc.	!	!LO:TX:b:i:t=cresc.	!	!LO:TX:b:i:t=cresc.	!	!
(4G-	.	(8d-L	.	4.dd-	.	4.ee-	.	V65/V
.	.	8B-	.	.	.	.	.	.
4GX	.	8e-	.	.	.	.	.	.
.	.	8B-	.	(8dd-L	.	(8bb-L	.	.
4A-)	.	8c	.	8cc)	.	8aa-)	.	V7
.	.	8e-J)	.	8ccJ	.	8gg-'J	.	.
=30	=30	=30	=30	=30	=30	=30	=30	=30
(4AX	.	(8fL	.	(8ccL	.	4.ff	.	vi
.	.	8c	.	8ee-J)	.	.	.	.
2B-)	.	8f	.	4.dd-	.	.	.	.
.	.	8d-	.	.	.	(8ddd-L	.	.
.	.	8f	.	.	.	8ccc)	.	.
.	.	[8g-J)	.	8dd-	.	8bb-'J	.	IV6
=31	=31	=31	=31	=31	=31	=31	=31	=31
4.c	.	(8g-L]	.	(8ee-	.	4.aa-	.	V65
.	.	8e-	.	4gg-)	.	.	.	.
.	.	8a-	.	.	.	.	.	.
(8cL	f	8e-	f	(8gg-L	f	(8ggg-L	f	.
8d-J)	.	8f)	.	8ff)	.	8fff)	.	I
[8d-	.	8fJ	.	[8aa-J	.	8ddd-'J	.	.
=32	=32	=32	=32	=32	=32	=32	=32	=32
8d-L]	p	(8g-L	p	8aa-]	p	8ccc	p	IV64(94)
8G-J	.	16d-L	.	(8gg-L	.	(8bb-L	.	IV
.	.	16e-JJ)	.	.	.	.	.	.
(8A-	.	8f	.	8ffJ)	.	8aa-J)	.	V(64)
4a-	.	4a-	.	(8dd-'L	.	(8ff'L	.	.
.	.	.	.	8ee-'	.	8gg-'	.	V7
8g-)	.	8a-	.	8cc'J)	.	8ee-'J)	.	V2
=33	=33	=33	=33	=33	=33	=33	=33	=33
!LO:TX:a:i:t=cresc.	!	!LO:TX:b:i:t=cresc.	!	!LO:TX:b:i:t=cresc.	!	!LO:TX:b:i:t=cresc.	!	!
(4f	.	4a-	.	(4dd-	.	[2.aa-	.	V2
(16g-LL)	.	(16a-LL	.	16ccLL	.	.	.	.
16f	.	16b-	.	16dd-	.	.	.	.
16e-	.	16cc	.	16ee-	.	.	.	.
16d-JJ	.	16dd-JJ	.	16ffJJ	.	.	.	.
16cLL	.	4ee-)	.	4gg-)	.	.	.	.
16B-	.	.	.	.	.	.	.	.
16A-	.	.	.	.	.	.	.	.
16G-JJ)	.	.	.	.	.	.	.	.
=34	=34	=34	=34	=34	=34	=34	=34	=34
(16FLL	.	2ee-	.	2gg-	.	(2aa-]	.	V43
16E-	.	.	.	.	.	.	.	.
16D-	.	.	.	.	.	.	.	.
16CJJ	.	.	.	.	.	.	.	.
16BB-LL	.	.	.	.	.	.	.	.
16AA-	.	.	.	.	.	.	.	.
16GG-	.	.	.	.	.	.	.	.
16FFJJ	.	.	.	.	.	.	.	.
16EE-LL	.	[4A-	.	(4g-	.	8bb-L	.	.
16FF	.	.	.	.	.	.	.	.
16GG-	.	.	.	.	.	8cccJ	.	.
16EE-JJ)	.	.	.	.	.	.	.	.
=35	=35	=35	=35	=35	=35	=35	=35	=35
8DD-L	.	8A-L]	.	8fL)	.	4ddd-)	.	I
8D-J	.	8A-J	.	8ffJ	.	.	.	.
(16CLL	.	(16e-LL	.	(16gg-LL	.	4r	.	V65
16D-	.	16d-	.	16ff	.	.	.	.
16E-	.	16c	.	16ee-	.	.	.	.
16FJJ	.	16B-JJ	.	16dd-JJ	.	.	.	.
16G-LL	.	16A-LL	.	16ccLL	.	(16cccLL	.	.
16F	.	16B-	.	16dd-	.	16ddd-	.	.
16E-	.	16c	.	16ee-	.	16eee-	.	.
16D-JJ)	.	16d-JJ)	.	16ffJJ)	.	16fffJJ)	.	.
=36	=36	=36	=36	=36	=36	=36	=36	=36
(16CLL	f	[2.e-	f	[2.gg-	f	[4ggg-	f	.
16D-	.	.	.	.	.	.	.	.
16C	.	.	.	.	.	.	.	.
16BB-JJ)	.	.	.	.	.	.	.	.
[2AA-	.	.	.	.	.	(16ggg-LL]	.	V7
.	.	.	.	.	.	16fff	.	.
.	.	.	.	.	.	16eee-	.	.
.	.	.	.	.	.	16ddd-JJ	.	.
.	.	.	.	.	.	16cccLL	.	.
.	.	.	.	.	.	16ddd-	.	.
.	.	.	.	.	.	16eee-	.	.
.	.	.	.	.	.	16cccJJ)	.	.
=37	=37	=37	=37	=37	=37	=37	=37	=37
2AA-]	.	4e-]	.	4gg-]	.	(16aa-LL	.	.
.	.	.	.	.	.	16bb-	.	.
.	.	.	.	.	.	16gg-	.	.
.	.	.	.	.	.	16ee-JJ)	.	.
!	!	!LO:TX:b:i:t=dim.	!	!LO:TX:b:i:t=dim.	!	!LO:TX:b:i:t=dim.	!	!
.	.	[2A-	.	[2g-	.	(16dd-LL	.	.
.	.	.	.	.	.	16ee-	.	.
.	.	.	.	.	.	16cc	.	.
.	.	.	.	.	.	16a-JJ)	.	.
!LO:TX:b:i:t=dim.	!	!	!	!	!	!	!	!
[4AA-	.	.	.	.	.	(16dd-LL	.	.
.	.	.	.	.	.	16ee-	.	.
.	.	.	.	.	.	16cc	.	.
.	.	.	.	.	.	16a-JJ)	.	.
=38	=38	=38	=38	=38	=38	=38	=38	=38
4AA-]	p	8A-L]	p	(2g-]	p	(2ee-	p	.
.	.	(16A-L	.	.	.	.	.	.
.	.	16B-JJ	.	.	.	.	.	.
((4AA-	.	16A-LL	.	.	.	.	.	.
.	.	16B-	.	.	.	.	.	.
.	.	16A-	.	.	.	.	.	.
.	.	16B-JJ)	.	.	.	.	.	.
4DD-))	.	4A-	.	4f)	.	4dd-)	.	I\\
=39:|!|:	=39:|!|:	=39:|!|:	=39:|!|:	=39:|!|:	=39:|!|:	=39:|!|:	=39:|!|:	=39:|!|:
*k[b-e-a-d-g-c-]	*	*k[b-e-a-d-g-c-]	*	*k[b-e-a-d-g-c-]	*	*k[b-e-a-d-g-c-]	*	*
*G-:	*	*G-:	*	*G-:	*	*G-:	*	*
!	!	!	!	!	!LO:DY:a	!LO:TX:a:B:t=Trio	!	!
4GG-	f	4B-	f	4d-	f f	8.B-L 8.g-	.	IV.I
.	.	.	.	.	.	16g-Jk	.	.
4r	.	4r	.	4r	.	8b-'L	.	.
.	.	.	.	.	.	8dd-'	.	.
4r	.	4r	.	4r	.	8gg-'	.	.
.	.	.	.	.	.	8bb-'J	.	.
=40	=40	=40	=40	=40	=40	=40	=40	=40
2.r	.	4r	.	2.r	.	8ddd-'L	.	.
.	.	.	.	.	.	8bb-'	.	.
.	.	8r	.	.	.	8gg-'	.	.
.	.	8d-'L	.	.	.	8dd-'	.	.
.	.	8B-'	.	.	.	8b-'	.	.
.	.	8G-'J	.	.	.	8g-'J	.	.
=41	=41	=41	=41	=41	=41	=41	=41	=41
!	!LO:DY:a	!	!	!	!LO:DY:a	!	!	!
4r	fp	4.D-	.	4r	fp	4.d-	.	.
8r	.	.	.	4r	.	.	.	.
8GG-'L	p	8B-'L	.	.	.	8d-'L	.	I
8FF'	.	8A-'	.	8r	.	8d-'	.	V6
8AA-'J	.	8c-'J	.	8f'	p	8d-'J	.	V43
=42	=42	=42	=42	=42	=42	=42	=42	=42
!	!	!	!	!	!LO:DY:a	!	!	!
4.GG-	fp	(8B-L	f	4g-	fp fp	4.d-	.	I
.	.	16A-L	.	.	.	.	.	.
.	.	16B-JJ)	.	.	.	.	.	.
.	.	8G-	.	4r	.	.	.	.
8GG-'L	.	8B-'L	p	.	.	8d-L	.	I
8FF'	.	8A-'	.	8r	.	8d-	.	V6
!	!	!	!LO:DY:a	!	!	!	!	!
8AA-'J	.	8c-'J	p	8f	.	8d-J	.	V43
=43	=43	=43	=43	=43	=43	=43	=43	=43
!	!	!	!	!	!LO:DY:a	!	!	!
4.GG-	fp	(8B-L	f	4g-	fp fp	4.d-	.	I
.	.	16A-L	.	.	.	.	.	.
.	.	16B-JJ)	.	.	.	.	.	.
.	.	8G-'	.	8r	.	.	.	.
8GG-'L	.	8d-'L	p	8B-'L	.	8b-'L	.	.
8FF'	.	8d-'	.	8A-'	.	8a-'	.	V6
8EE-'J	.	8G-'J 8A-	.	8c'J	.	8cc'J	.	V43/V
=44	=44	=44	=44	=44	=44	=44	=44	=44
4DD-	.	4F 4A-	.	(16d-LL	.	4dd-	.	V
.	.	.	.	16e-	.	.	.	.
.	.	.	.	16f	.	.	.	.
.	.	.	.	16g-JJ	.	.	.	.
4r	.	4r	.	16a-LL	.	4r	.	.
.	.	.	.	16b-	.	.	.	.
.	.	.	.	16a-	.	.	.	.
.	.	.	.	16g-JJ	.	.	.	.
4r	.	4r	.	16fLL	.	[4ff	.	.
.	.	.	.	16a-	.	.	.	.
.	.	.	.	16b-	.	.	.	.
.	.	.	.	16ccJJ)	.	.	.	.
=45	=45	=45	=45	=45	=45	=45	=45	=45
4DD-	.	4F 4A-	.	(16dd-LL	.	4ff]	.	.
.	.	.	.	16cc	.	.	.	.
.	.	.	.	16dd-	.	.	.	.
.	.	.	.	16b-JJ	.	.	.	.
4r	.	4r	.	16a-LL	.	4r	.	.
.	.	.	.	16cc	.	.	.	.
.	.	.	.	16dd-	.	.	.	.
.	.	.	.	16ee-JJ	.	.	.	.
4r	.	4r	.	16ffLL	.	[4aa-	.	.
.	.	.	.	16gg-	.	.	.	.
.	.	.	.	16ff	.	.	.	.
.	.	.	.	16ee-JJ)	.	.	.	.
=46	=46	=46	=46	=46	=46	=46	=46	=46
4DD-	.	4F 4A-	.	(16dd-LL	.	4aa-]	.	V
.	.	.	.	16ee-	.	.	.	.
.	.	.	.	16ff	.	.	.	.
.	.	.	.	16gg-JJ	.	.	.	.
4r	.	4r	.	16aa-LL	.	4r	.	.
.	.	.	.	16bb-	.	.	.	.
.	.	.	.	16aa-	.	.	.	.
.	.	.	.	16gg-JJ	.	.	.	.
4r	.	4r	.	16ffLL	.	[4ddd-	.	.
.	.	.	.	16dd-	.	.	.	.
.	.	.	.	16cc	.	.	.	.
.	.	.	.	16b-JJ)	.	.	.	.
=47	=47	=47	=47	=47	=47	=47	=47	=47
8r	.	8r	.	(16a-LL	.	8ddd-]	.	V64
.	.	.	.	16g-	.	.	.	.
8AA-L	.	8FL 8A-	.	16f	.	4fff	.	.
.	.	.	.	16e-JJ)	.	.	.	.
8AA-	.	8F 8A-	.	(16d-LL	.	.	.	.
.	.	.	.	16a-	.	.	.	.
8AA-	.	8F 8A-	.	16f	.	8aaa-L	.	.
.	.	.	.	16d-JJ	.	.	.	.
8AA-	.	8c	.	16e-LL	.	8aaa-	.	V7/V
.	.	.	.	16a-	.	.	.	.
8AA-J	.	8cJ	.	16g-	.	8aaa-J	.	.
.	.	.	.	16e-JJ)	.	.	.	.
=48	=48	=48	=48	=48	=48	=48	=48	=48
8D-L	.	(16D-LL	.	(16d-LL	.	8ddd-	.	V\\
.	.	16E-	.	16e-	.	.	.	.
8DD-	.	16F	.	16f	.	8r	.	V
.	.	16G-JJ	.	16g-JJ	.	.	.	.
8D-J	.	16A-LL	.	16a-LL	.	8r	.	.
.	.	16B-	.	16b-	.	.	.	.
!LO:TX:b:i:t=cresc.	!	!LO:TX:b:i:t=cresc.	!	!LO:TX:b:i:t=cresc.	!	!LO:TX:b:i:t=cresc.	!	!
8r	.	16A-	.	16a-	.	8dd-'	.	.
.	.	16G-JJ	.	16g-JJ	.	.	.	.
4r	.	16FLL	.	16fLL	.	[4ff	.	.
.	.	16A-	.	16a-	.	.	.	.
.	.	16B-	.	16b-	.	.	.	.
.	.	16cJJ)	.	16ccJJ)	.	.	.	.
=49	=49	=49	=49	=49	=49	=49	=49	=49
8D-L	.	(16d-LL	.	(16dd-LL	.	4ff]	.	.
.	.	16c	.	16cc	.	.	.	.
8DD-	.	16d-	.	16dd-	.	.	.	.
.	.	16B-JJ	.	16b-JJ	.	.	.	.
8D-J	.	16A-LL	.	16a-LL	.	8r	.	.
.	.	16c	.	16cc	.	.	.	.
8r	.	16d-	.	16dd-	.	8ff'	.	.
.	.	16e-JJ	.	16ee-JJ	.	.	.	.
4r	.	16fLL	.	16ffLL	.	[4aa-	.	.
.	.	16g-	.	16gg-	.	.	.	.
.	.	16f	.	16ff	.	.	.	.
.	.	16e-JJ)	.	16ee-JJ)	.	.	.	.
=50	=50	=50	=50	=50	=50	=50	=50	=50
8D-L	.	(16d-LL	.	(16dd-LL	.	4aa-]	.	.
.	.	16e-	.	16ee-	.	.	.	.
8DD-	.	16f	.	16ff	.	.	.	.
.	.	16g-JJ	.	16gg-JJ	.	.	.	.
8D-J	.	16a-LL	.	16aa-LL	.	8r	.	.
.	.	16b-	.	16bb-	.	.	.	.
8r	.	16a-	.	16aa-	.	8aa-'	.	.
.	.	16g-JJ	.	16gg-JJ	.	.	.	.
4r	.	16fLL	.	16ffLL	.	[4ddd-	.	.
.	.	16d-	.	16dd-	.	.	.	.
.	.	16c	.	16cc	.	.	.	.
.	.	16B-JJ)	.	16b-JJ)	.	.	.	.
=51	=51	=51	=51	=51	=51	=51	=51	=51
4r	.	(16A-LL	.	(16a-LL	.	8ddd-L]	.	V64
.	.	16G-	.	16g-	.	.	.	.
.	.	16F	.	16f	.	8ddd-'J	.	.
.	.	16E-JJ)	.	16e-JJ)	.	.	.	.
8r	.	(16D-LL	.	(16d-LL	.	8fff'	.	.
.	.	16A-	.	16a-	.	.	.	.
!	!LO:DY:a	!	!LO:DY:a	!	!	!	!	!
8AA-L	sf sf	16F	sf	16f	.	4aaa-	sf	V7/V
.	.	16D-JJ)	.	16d-JJ)	.	.	.	.
8AA-	.	(16E-LL	.	(16e-LL	.	.	.	.
.	.	16A-	.	16a-	.	.	.	.
8AA-J	.	16G-	.	16g-	.	8aaa-	.	.
.	.	16E-JJ)	.	16e-JJ)	.	.	.	.
=52	=52	=52	=52	=52	=52	=52	=52	=52
4r	.	(16A-LL	.	(16a-LL	.	8r	.	V64
.	.	16G-	.	16g-	.	.	.	.
.	.	16F	.	16f	.	8ddd-'	.	.
.	.	16E-JJ)	.	16e-JJ)	.	.	.	.
8r	.	(16D-LL	.	(16d-LL	.	8fff'	.	.
.	.	16A-	.	16a-	.	.	.	.
!	!LO:DY:a	!	!LO:DY:a	!	!	!	!	!
8AA-L	sf sf	16F	sf	16f	.	4aaa-	sf	V7/V
.	.	16D-JJ)	.	16d-JJ)	.	.	.	.
8AA-	.	(16E-LL	.	(16e-LL	.	.	.	.
.	.	16A-	.	16a-	.	.	.	.
8AA-J	.	16G-	.	16g-	.	8aaa-	.	.
.	.	16E-JJ)	.	16e-JJ)	.	.	.	.
=53	=53	=53	=53	=53	=53	=53	=53	=53
4r	.	(16A-LL	f	(16a-LL	f	8r	.	V64
.	.	16G-	.	16g-	.	.	.	.
.	.	16F	.	16f	.	8ddd-'	f	.
.	.	16E-JJ)	.	16e-JJ)	.	.	.	.
8r	.	(16D-LL	.	(16d-LL	.	8fff'L	.	.
.	.	16A-	.	16a-	.	.	.	.
8AA-L	f	16F	.	16f	.	8aaa-'J	.	.
.	.	16D-JJ)	.	16d-JJ)	.	.	.	.
8AA-	.	(16E-LL	.	(16e-LL	.	8A-'L	.	V7/V
.	.	16A-	.	16a-	.	.	.	.
8AA-J	.	16G-	.	16g-	.	8cc'J	.	.
.	.	16E-JJ)	.	16e-JJ)	.	.	.	.
=54	=54	=54	=54	=54	=54	=54	=54	=54
8DD-'L	.	8D-'L	.	4d-	.	4dd-	.	V\\
8E-'J	sf	8e-'J	sf	.	.	.	.	.
8r	.	8r	.	4r	.	4r	.	.
8C-'L	.	8c-'L	p	.	.	.	.	.
8AA-'	p	8A-'	.	8r	p	8r	p	V/V
8D-'J	.	8d-'J	.	8d-	.	8A- 8f	.	V
=55:|!	=55:|!	=55:|!	=55:|!	=55:|!	=55:|!	=55:|!	=55:|!	=55:|!
!	!	!	!LO:DY:a	!	!	!	!	!
8DD-'L	f	8D-'L	f f	4d-	.	8dd-'L	f	V\\
8D-'J	.	8d-'J	.	.	.	8d-'J	.	.
8r	.	8r	.	4r	.	8r	.	.
8D-	.	8d-	.	.	.	8d-	.	.
(8.C-TL	.	(8.c-TL	.	4r	.	(8.c-XTL	.	V2
32BB-LL	.	32B-LL	.	.	.	32B-LL	.	.
32C-JJJ)	.	32c-JJJ)	.	.	.	32c-JJJ)	.	.
=56!|:	=56!|:	=56!|:	=56!|:	=56!|:	=56!|:	=56!|:	=56!|:	=56!|:
!	!	!	!LO:DY:a	!	!LO:DY:a	!	!	!
4BB-	f	4B-	f f	4dX 4f	f	8.B-L 8.f 8.b-	.	V/vi
.	.	.	.	.	.	16b-Jk	.	.
4r	.	4r	.	4r	.	8ddX'L	.	.
.	.	.	.	.	.	8ff'	.	.
4r	.	4r	.	4r	.	8bb-'	.	.
.	.	.	.	.	.	8dddX'J	.	.
=57	=57	=57	=57	=57	=57	=57	=57	=57
2.r	.	2.r	.	4r	.	8fff'L	.	.
.	.	.	.	.	.	8dddX'J	.	.
.	.	.	.	8r	.	8bb-'L	.	.
.	.	.	.	8fL	.	8ff'	.	.
.	.	.	.	8dX	.	8ddX'	.	.
.	.	.	.	8fJ	.	8ff'J	.	.
=58	=58	=58	=58	=58	=58	=58	=58	=58
!	!	!	!LO:DY:a	!	!	!	!	!
4r	.	4r	sf	4.B-	.	4.b-	sf	ii.V
8r	f	8r	.	.	.	.	.	.
!	!LO:DY:a	!	!LO:DY:a	!	!	!	!	!
8EE-'L	f	8G-'L	f	8B-'L	.	8b-'L	f	i
8DDX'	.	8F'	.	8B-'	.	8b-'	.	V6
8FF'J	.	8A-'J	.	8B-'J	.	8b-'J	.	V43
=59	=59	=59	=59	=59	=59	=59	=59	=59
4.EE-	.	(8G-L	.	4.B-	.	4.b-	.	i
.	.	16FL	.	.	.	.	.	.
.	.	16G-JJ)	.	.	.	.	.	.
.	.	8E-'	.	.	.	.	.	.
!	!	!	!	!	!LO:DY:a	!	!	!
8r	.	8e-'L	p	8g-'L	p p	8b-'L	.	.
4r	.	8e-'	.	8g-'	.	8cc-'	.	.
.	.	8e-'J	.	8g-'J	.	8cc-'J	.	VI6
=60	=60	=60	=60	=60	=60	=60	=60	=60
4r	.	4.f	.	(8a-L	.	4.cc-	.	iio
.	.	.	.	16g-L	.	.	.	.
.	.	.	.	16a-JJ)	.	.	.	.
8r	.	.	.	8f'	.	.	.	.
!	!	!	!	!	!LO:DY:a	!	!	!
8FF'L	f	8A-'L	f	8c-'L	f f	8cc-'L	.	.
8EE-'	.	8G-'	.	8c-'	.	8cc-'	.	VI6
8GG-'J	.	8B-'J	.	8c-'J	.	8cc-'J	.	VI43
=61	=61	=61	=61	=61	=61	=61	=61	=61
4.FF	.	(8A-L	.	4.c-	.	4.cc-	.	iio
.	.	16G-L	.	.	.	.	.	.
.	.	16A-JJ)	.	.	.	.	.	.
.	.	8F'	.	.	.	.	.	.
!	!	!	!	!	!LO:DY:a	!	!	!
8r	.	8f'L	p	8a-'L	p p	8cc-'L	.	iio
4r	.	8f'	.	8a-'	.	8dd-'	.	V6/III
.	.	8f'J	.	8a-'J	.	8dd-'J	.	V6/III
=62	=62	=62	=62	=62	=62	=62	=62	=62
4r	.	4g-	.	(8b-L	.	4.dd-	.	IV.I
.	.	.	.	16a-L	.	.	.	.
.	.	.	.	16b-JJ)	.	.	.	.
8r	.	8r	.	8g-'	.	.	.	.
!	!	!	!LO:DY:a	!	!	!	!	!
8GG-'L	f	8B-'L	f f	8d-'L	.	8r	.	.
8FF'	.	8A-'	.	8d-'	.	8r	.	V6
8AA-'J	.	8c-'J	.	8d-'J	.	8r	.	V43
=63	=63	=63	=63	=63	=63	=63	=63	=63
4GG-	.	(8B-L	.	4.d-	.	4r	.	I
.	.	16A-L	.	.	.	.	.	.
.	.	16B-JJ)	.	.	.	.	.	.
4r	.	8G-'	.	.	.	8r	.	.
.	.	8g-'L	p	8b-'L	p	8dd-'L	p	.
4r	.	8f'	.	8a-'	.	8dd-'	.	V6
.	.	8a-'J	.	8cc-'J	.	8dd-'J	.	V43
=64	=64	=64	=64	=64	=64	=64	=64	=64
4r	.	4g-	.	(8b-L	.	4.dd-	.	I
.	.	.	.	16a-L	.	.	.	.
.	.	.	.	16b-JJ)	.	.	.	.
4r	.	8r	.	8g-'	.	.	.	.
.	.	8G-'L	.	8B-'L	.	8d-'L	.	.
8r	p	8F'	.	8A-'	.	8d-'	.	V6
8DD-	.	8A-'J	.	8c-'J	.	8f'J	.	V7
=65	=65	=65	=65	=65	=65	=65	=65	=65
4GG-	.	(16G-LL	.	4B-	.	4g-	.	I
.	.	16A-	.	.	.	.	.	.
.	.	16B-	.	.	.	.	.	.
.	.	16c-JJ	.	.	.	.	.	.
4r	.	16d-LL	.	4r	.	4r	.	.
.	.	16e-	.	.	.	.	.	.
.	.	16d-	.	.	.	.	.	.
.	.	16c-JJ	.	.	.	.	.	.
4r	.	16B-LL	.	4r	.	[4b-	.	.
.	.	16d-	.	.	.	.	.	.
.	.	16e-	.	.	.	.	.	.
.	.	16fJJ)	.	.	.	.	.	.
=66	=66	=66	=66	=66	=66	=66	=66	=66
4GG-	.	(16g-LL	.	4B- 4g-	.	4b-]	.	.
.	.	16f	.	.	.	.	.	.
.	.	16g-	.	.	.	.	.	.
.	.	16e-JJ	.	.	.	.	.	.
4r	.	16d-LL	.	4r	.	4r	.	.
.	.	16f	.	.	.	.	.	.
.	.	16g-	.	.	.	.	.	.
.	.	16a-JJ	.	.	.	.	.	.
4r	.	16b-LL	.	4r	.	[4dd-	.	.
.	.	16cc-	.	.	.	.	.	.
.	.	16b-	.	.	.	.	.	.
.	.	16a-JJ)	.	.	.	.	.	.
=67	=67	=67	=67	=67	=67	=67	=67	=67
4GG-	.	(16g-LL	.	4B- 4g-	.	4dd-]	.	.
.	.	16a-	.	.	.	.	.	.
.	.	16b-	.	.	.	.	.	.
.	.	16cc-JJ	.	.	.	.	.	.
4r	.	16dd-LL	.	4r	.	4r	.	.
.	.	16ee-	.	.	.	.	.	.
.	.	16dd-	.	.	.	.	.	.
.	.	16cc-JJ	.	.	.	.	.	.
4r	.	16b-LL	.	4r	.	[4gg-	.	.
.	.	16g-	.	.	.	.	.	.
.	.	16f	.	.	.	.	.	.
.	.	16e-JJ)	.	.	.	.	.	.
=68	=68	=68	=68	=68	=68	=68	=68	=68
4r	.	(16d-LL	.	4r	.	8gg-]	.	V(64)
.	.	16c-	.	.	.	.	.	.
.	.	16B-	.	.	.	4bb-	.	.
.	.	16A-JJ	.	.	.	.	.	.
8r	.	16G-LL	.	8r	.	.	.	.
.	.	16d-	.	.	.	.	.	.
8D-L	.	16B-	.	8g-'L	.	8ddd-L	.	.
.	.	16G-JJ	.	.	.	.	.	.
8D-	.	16A-LL	.	8f'	.	8ddd-	.	V7
.	.	16d-	.	.	.	.	.	.
8D-J	.	16c-	.	8f'J	.	8ddd-J	.	.
.	.	16A-JJ)	.	.	.	.	.	.
=69	=69	=69	=69	=69	=69	=69	=69	=69
!LO:TX:b:i:t=cresc.	!	!LO:TX:b:i:t=cresc.	!	!LO:TX:b:i:t=cresc.	!	!LO:TX:b:i:t=cresc.	!	!
8G-L	.	(16G-LL	.	(16g-LL	.	4gg-	.	I
.	.	16A-	.	16a-	.	.	.	.
8GG-	.	16B-	.	16b-	.	.	.	.
.	.	16c-JJ	.	16cc-JJ	.	.	.	.
8G-J	.	16d-LL	.	16dd-LL	.	8r	.	.
.	.	16e-	.	16ee-	.	.	.	.
8r	.	16d-	.	16dd-	.	8gg-'	.	.
.	.	16c-JJ	.	16cc-JJ	.	.	.	.
4r	.	16B-LL	.	16b-LL	.	[4bb-	.	.
.	.	16d-	.	16dd-	.	.	.	.
.	.	16e-	.	16ee-	.	.	.	.
.	.	16fJJ)	.	16ffJJ)	.	.	.	.
=70	=70	=70	=70	=70	=70	=70	=70	=70
8G-L	.	(16g-LL	.	(16gg-LL	.	4bb-]	.	.
.	.	16f	.	16ff	.	.	.	.
8GG-	.	16g-	.	16gg-	.	.	.	.
.	.	16e-JJ	.	16ee-JJ	.	.	.	.
8G-J	.	16d-LL	.	16dd-LL	.	8r	.	.
.	.	16f	.	16ff	.	.	.	.
8r	.	16g-	.	16gg-	.	8bb-'	.	.
.	.	16a-JJ	.	16aa-JJ	.	.	.	.
4r	.	16b-LL	.	16bb-LL	.	[4ddd-	.	.
.	.	16cc-	.	16ccc-	.	.	.	.
.	.	16b-	.	16bb-	.	.	.	.
.	.	16a-JJ)	.	16aa-JJ)	.	.	.	.
=71	=71	=71	=71	=71	=71	=71	=71	=71
8G-L	.	(16g-LL	.	(16gg-LL	.	4ddd-]	.	.
.	.	16a-	.	16aa-	.	.	.	.
8GG-	.	16b-	.	16bb-	.	.	.	.
.	.	16cc-JJ	.	16ccc-JJ	.	.	.	.
8G-J	.	16dd-LL	.	16ddd-LL	.	8r	.	.
.	.	16ee-	.	16eee-	.	.	.	.
8r	.	16dd-	.	16ddd-	.	8ddd-'	.	.
.	.	16cc-JJ	.	16ccc-JJ	.	.	.	.
4r	.	16b-LL	.	16bb-LL	.	[4ggg-	.	.
.	.	16g-	.	16gg-	.	.	.	.
.	.	16f	.	16ff	.	.	.	.
.	.	16e-JJ)	.	16ee-JJ)	.	.	.	.
=72	=72	=72	=72	=72	=72	=72	=72	=72
4r	.	(16d-LL	.	(16dd-LL	.	8ggg-L]	.	V(64)
.	.	16c-	.	16cc-	.	.	.	.
.	.	16B-	.	16b-	.	8ggg-'J	.	.
.	.	16A-JJ)	.	16a-JJ)	.	.	.	.
8r	.	(16G-LL	.	(16g-LL	.	8bbb-	.	.
.	.	16d-	.	16dd-	.	.	.	.
!	!LO:DY:a	!	!LO:DY:a	!	!	!	!	!
8D-L	sf sf	16B-	sf	16b-	.	4dddd-	sf	V7
.	.	16G-JJ)	.	16g-JJ)	.	.	.	.
8DD-	.	(16A-LL	.	(16a-LL	.	.	.	.
.	.	16d-	.	16dd-	.	.	.	.
8D-J	.	16c-	.	16cc-	.	8dddd-	.	.
.	.	16A-JJ)	.	16a-JJ)	.	.	.	.
=73	=73	=73	=73	=73	=73	=73	=73	=73
4r	.	(16d-LL	.	(16dd-LL	.	8r	.	V(64)
.	.	16c-	.	16cc-	.	.	.	.
.	.	16B-	.	16b-	.	8ggg-'L	.	.
.	.	16A-JJ)	.	16a-JJ)	.	.	.	.
8r	.	(16G-LL	.	(16g-LL	.	8bbb-'J	.	.
.	.	16d-	.	16dd-	.	.	.	.
!	!LO:DY:a	!	!LO:DY:a	!	!	!	!	!
8D-L	sf sf	16B-	sf	16b-	.	4dddd-'	sf	V7
.	.	16G-JJ)	.	16g-JJ)	.	.	.	.
8DD-	.	(16A-LL	.	(16a-LL	.	.	.	.
.	.	16d-	.	16dd-	.	.	.	.
8D-J	.	16c-	.	16cc-	.	8dddd-'	.	.
.	.	16A-JJ)	.	16a-JJ)	.	.	.	.
=74	=74	=74	=74	=74	=74	=74	=74	=74
4r	.	(16d-LL	f	(16dd-LL	f	8r	.	V(64)
.	.	16c-	.	16cc-	.	.	.	.
.	.	16B-	.	16b-	.	8ggg-'L	f	.
.	.	16A-JJ)	.	16a-JJ)	.	.	.	.
8r	.	(16G-LL	.	(16g-LL	.	8bbb-'	.	.
.	.	16d-	.	16dd-	.	.	.	.
8D-L	f	16B-	.	16b-	.	8dddd-'J	.	.
.	.	16G-JJ)	.	16g-JJ)	.	.	.	.
8DD-	.	(16A-LL	.	(16a-LL	.	8A-'L 8f	.	V7
.	.	16d-	.	16dd-	.	.	.	.
8D-J	.	16c-	.	16cc-	.	8ff'J	.	.
.	.	16A-JJ)	.	16a-JJ)	.	.	.	.
=75	=75	=75	=75	=75	=75	=75	=75	=75
8GG-'L	.	8G-'L	.	4g-	.	8gg-'L	.	I\\
8GG-'J	.	8G-'J	.	.	.	8g-'J	.	.
8r	.	8r	.	4r	.	8r	.	.
8GG-	.	8G-	.	.	.	8g-	.	.
(8.AA-TL	.	(8.A-TL	.	4r	.	(8.a-TL	.	.
32GG-LL	.	32G-LL	.	.	.	32g-LL	.	.
32AA-JJJ)	.	32A-JJJ)	.	.	.	32a-JJJ)	.	.
=76:|!	=76:|!	=76:|!	=76:|!	=76:|!	=76:|!	=76:|!	=76:|!	=76:|!
8GG-L	.	8G-L	.	4g-	.	4gg-	.	I\\
!	!LO:DY:a	!	!	!	!	!	!	!
8GG-J	sf sf	8G-J	.	.	.	.	.	.
8r	.	8r	.	4r	.	4r	.	.
8GG-'L	p	8G-'L	p	.	.	.	.	.
8EE-'	.	8E-'	.	4r	.	4r	.	.
8GG-'J	.	8G-'J	.	.	.	.	.	.
=77	=77	=77	=77	=77	=77	=77	=77	=77
4AA-	.	4A-	.	8r	.	2.r	.	I.V7
.	.	.	.	8g-'L	p	.	.	.
4r	.	4r	.	8e-'	.	.	.	.
.	.	.	.	8g-'J	.	.	.	.
4r	.	4r	.	[4a-	.	.	.	.
=78	=78	=78	=78	=78	=78	=78	=78	=78
!	!	!	!	!	!	!LO:TX:a:B:t=Menuetto da Capo	!	!
2.r	.	2.g-	.	2.a-]	.	2.r	.	V2
=79||	=79||	=79||	=79||	=79||	=79||	=79||	=79||	=79||
*k[b-e-a-d-g-]	*	*k[b-e-a-d-g-]	*	*k[b-e-a-d-g-]	*	*k[b-e-a-d-g-]	*	*
*D-:	*	*D-:	*	*D-:	*	*D-:	*	*
(2D-	pp	4r	pp	4r	pp	4r	pp	i.i
.	.	4f-X	.	4a-	.	4dd-	.	.
!	!	!	!	!	!	!LO:TX:a:B:t=Coda	!	!
16CLL	.	4f-	.	4a-	.	[4dd-	.	.
16D-	.	.	.	.	.	.	.	.
16E-	.	.	.	.	.	.	.	.
16F-XJJ)	.	.	.	.	.	.	.	.
=80	=80	=80	=80	=80	=80	=80	=80	=80
(2G-	.	4d-	.	4b--X	.	4dd-]	.	iv
.	.	4g-	.	4b--	.	4dd-	.	.
16FLL	.	[4g-	.	[4b--	.	[4dd-	.	.
16G-	.	.	.	.	.	.	.	.
16A-	.	.	.	.	.	.	.	.
16B--XJJ)	.	.	.	.	.	.	.	.
=81	=81	=81	=81	=81	=81	=81	=81	=81
(2E-	.	4g-]	.	4b--]	.	4dd-]	.	V65(2)/III
.	.	4g-	.	4b--X	.	4cc-X	.	V65/III
16DXLL	.	[4B--X	.	4g-	.	[4cc-	.	.
16E-	.	.	.	.	.	.	.	.
16F	.	.	.	.	.	.	.	.
16G-JJ)	.	.	.	.	.	.	.	.
=82	=82	=82	=82	=82	=82	=82	=82	=82
!	!	!LO:TX:b:i:t=cresc.	!	!LO:TX:b:i:t=cresc.	!	!LO:TX:b:i:t=cresc.	!	!
4C-X	.	(4B--]	.	(4c-X	.	4cc-]	.	V7/III
4r	.	16A-LL	.	16d-LL	.	(4cc-X	.	.
.	.	16G-	.	16e-	.	.	.	.
.	.	16F-X	.	16f-X	.	.	.	.
.	.	16E-JJ)	.	16g-JJ)	.	.	.	.
4r	.	4r	.	4r	.	16dd-LL	.	.
.	.	.	.	.	.	16ee-	.	.
.	.	.	.	.	.	16ff-X	.	.
.	.	.	.	.	.	16gg-JJ)	.	.
=83	=83	=83	=83	=83	=83	=83	=83	=83
(2F-X	pp	4c-X	pp	4ff-X	pp	4aa-	pp	III
.	.	4cc-X	.	4ff-	.	4aa-	.	.
16E-LL	.	4cc-	.	[4ff-	.	[4aa-	.	.
16F-	.	.	.	.	.	.	.	.
16G-	.	.	.	.	.	.	.	.
16A-JJ)	.	.	.	.	.	.	.	.
=84	=84	=84	=84	=84	=84	=84	=84	=84
(2B--X	.	4dd-	.	4ff-]	.	4aa-]	.	VI(7)
.	.	4dd-	.	4ff-X	.	4bb--X	.	VI
16A-LL	.	[4dd-	.	4ff-	.	[4bb--	.	.
16B--	.	.	.	.	.	.	.	.
16c-X	.	.	.	.	.	.	.	.
16d-JJ)	.	.	.	.	.	.	.	.
=85	=85	=85	=85	=85	=85	=85	=85	=85
(2G-	.	4dd-]	.	4gg-	.	4bb--]	.	iv
.	.	4dd-	.	4gg-	.	4bb--X	.	.
16FLL	.	4dd-	.	[4gg-	.	[4bb--	.	.
16G-	.	.	.	.	.	.	.	.
16A-	.	.	.	.	.	.	.	.
16B--XJJ)	.	.	.	.	.	.	.	.
=86	=86	=86	=86	=86	=86	=86	=86	=86
4E-	.	4cc	.	4gg-]	.	4bb--]	.	iio
4r	.	4r	.	4r	.	(16ffLL	.	.
.	.	.	.	.	.	16gg-	.	.
.	.	.	.	.	.	16aa-	.	.
.	.	.	.	.	.	16bb--XJJ)	.	.
(16FLL	.	4r	.	4r	.	8ee-	.	.
16G-	.	.	.	.	.	.	.	.
16A-	.	.	.	.	.	8r	.	.
16B--XJJ)	.	.	.	.	.	.	.	.
=87	=87	=87	=87	=87	=87	=87	=87	=87
(2E-	.	4r	.	4r	.	4r	.	.
.	.	4B--X	.	4e-	.	4g-	.	.
16DXLL	.	[4B--	.	[4e-	.	[4g-	.	.
16E-	.	.	.	.	.	.	.	.
16F	.	.	.	.	.	.	.	.
16G-JJ)	.	.	.	.	.	.	.	.
=88	=88	=88	=88	=88	=88	=88	=88	=88
4C	.	4B--]	.	4e-]	.	4g-]	.	#viio7
4r	.	4r	.	4r	.	(16ddXLL	.	.
.	.	.	.	.	.	16ee-	.	.
.	.	.	.	.	.	16ff	.	.
.	.	.	.	.	.	16gg-JJ)	.	.
!	!	!	!LO:DY:a	!	!LO:DY:a	!	!	!
(4BB--X	f	(4B--X	f f	(4B--X	f	(4B--X	.	#viio2
=89	=89	=89	=89	=89	=89	=89	=89	=89
!	!	!	!LO:DY:a	!	!LO:DY:a	!	!	!
4AA-)	p	2A-)	p p	8A-)	p	8A-)	.	V
!	!	!	!	!	!	!LO:TX:b:i:t=cresc.	!	!
.	.	.	.	8r	.	8r	.	.
!	!	!	!	!LO:TX:b:i:t=cresc.	!	!	!	!
4r	.	.	.	(16gXLL	.	(16b-LL	.	.
.	.	.	.	16a-	.	16cc	.	.
.	.	.	.	16b-	.	16dd-	.	.
.	.	.	.	16ccJJ	.	16ee-JJ	.	.
!	!	!LO:TX:b:i:t=cresc.	!	!	!	!	!	!
4r	.	(16D-LL	.	4dd-)	.	4ff-X)	.	i
.	.	16E-	.	.	.	.	.	.
.	.	16F-X	.	.	.	.	.	.
.	.	16G-JJ)	.	.	.	.	.	.
=90	=90	=90	=90	=90	=90	=90	=90	=90
(8DD-L	sf >	[2.A-	sf > ]]	2.dd-	sf > ]]	2.ff-X	sf > ]]	.
16EE-L	.	.	.	.	.	.	.	.
16FF-XJJ	.	.	.	.	.	.	.	.
16GG-LL	.	.	.	.	.	.	.	.
16AA-	.	.	.	.	.	.	.	.
16BB-	.	.	.	.	.	.	.	.
16CJJ	.	.	.	.	.	.	.	.
16D-LL	.	.	.	.	.	.	.	.
16E-	.	.	.	.	.	.	.	.
16F-X	.	.	.	.	.	.	.	.
16G-JJ)	]]	.	.	.	.	.	.	.
=91	=91	=91	=91	=91	=91	=91	=91	=91
4A-	p	4A-_	p	(16ccLL	p	(16ee-LL	p	V
.	.	.	.	16a-	.	16cc	.	.
.	.	.	.	16b-	.	16dd-	.	.
.	.	.	.	16a-JJ	.	16ccJJ	.	.
!	!	!LO:TX:b:i:t=cresc.	!	!LO:TX:b:i:t=cresc.	!	!	!	!
4r	.	16A-LL]	.	16gXLL	.	16b-LL	.	.
!	!	!	!	!	!	!LO:TX:b:i:t=cresc.	!	!
.	.	(16G-	.	16a-	.	16cc	.	.
.	.	16F-X	.	16b-	.	16dd-	.	.
.	.	16E-JJ	.	16ccJJ)	.	16ee-JJ)	.	.
!LO:TX:b:i:t=cresc.	!	!	!	!	!	!	!	!
(16AA-LL	.	16D-LL	.	8dd-'L	.	8ff-X'L	.	i64
16GG-	.	16E-	.	.	.	.	.	.
16FF-X	.	16F-	.	8dd-'J	.	8ff-'J	.	.
16EE-JJ)	.	16G-JJ)	.	.	.	.	.	.
=92	=92	=92	=92	=92	=92	=92	=92	=92
!	!LO:DY:a	!	!	!	!	!	!	!
(8DD-L	sf sf >	[2.A-	>]	[2.dd-	sf > ]]	[2.ff-X	sf > ]]	i
16EE-L	.	.	.	.	.	.	.	.
16FF-XJJ	.	.	.	.	.	.	.	.
16GG-LL	.	.	.	.	.	.	.	.
16AA-	.	.	.	.	.	.	.	.
16BB-	.	.	.	.	.	.	.	.
16CJJ	.	.	.	.	.	.	.	.
16D-LL	.	.	.	.	.	.	.	.
16E-	.	.	.	.	.	.	.	.
16F-X	.	.	.	.	.	.	.	.
16G-JJ	]	.	.	.	.	.	.	.
=93	=93	=93	=93	=93	=93	=93	=93	=93
4A-)	p	(2A-]	p	(4dd-]	p	(4ff-]	p	V(64)
!LO:TX:b:i:t=dim.	!	!	!	!LO:TX:b:i:t=dim.	!	!LO:TX:b:i:t=dim.	!	!
(4AA-	.	.	.	4cc)	.	4ee-	.	V
!	!	!LO:TX:b:i:t=dim.	!	!	!	!	!	!
4BB--X	.	4D-	.	4r	.	[4gX)	.	.It6
=94	=94	=94	=94	=94	=94	=94	=94	=94
4BB-	.	4F-X	.	4r	pp	(4g]	.	#viio65/V
4C-X	pp	4E-	pp	4A-	.	4a-	pp	iv6
4C)	.	4A-)	.	4e-	.	4g-)	.	V65
=95	=95	=95	=95	=95	=95	=95	=95	=95
!LO:TX:b:i:t=cresc.	!	!LO:TX:b:i:t=cresc.	!	!LO:TX:b:i:t=cresc.	!	!LO:TX:b:i:t=cresc.	!	!
[2C	.	[2A-	.	(4.e-	.	(4.g-	.	.
.	.	.	.	16fLL	.	16a-LL	.	.
.	.	.	.	16g-JJ	.	16b-JJ	.	.
!	!	!	!LO:DY:a	!	!	!	!	!
8CL]	.	8A-L]	f	16a-LL	.	16ccLL	.	.
.	.	.	.	16b-	.	16dd-	.	.
(16G-L	.	(16b-L	.	16cc	.	16ee-	.	.
16FJJ	.	16a-JJ	.	16dd-JJ)	.	16ffJJ)	.	.
=96	=96	=96	=96	=96	=96	=96	=96	=96
16E-LL	f >	16g-LL	f >	2.ee-;	f > ]]	2.gg-;	f > ]]	V
16D-	.	16f	.	.	.	.	.	.
16C	.	16e-	.	.	.	.	.	.
16BB-JJ)	.	16d-JJ)	.	.	.	.	.	.
4AA-;	.	4c;	.	.	.	.	.	.
4r	]]	4r	]]	.	.	.	.	.
==	==	==	==	==	==	==	==	==
*-	*-	*-	*-	*-	*-	*-	*-	*-
!!!system-decoration: [(s1,s2,s3,s4)]
!!!YEM:  
